client/src/assets/icons/plus.svg

<svg width="25" height="25" viewBox="0 0 25 25" fill="none" xmlns="http://www.w3.org/2000/svg">
<path d="M19.7917 13.5396H13.5417V19.7896H11.4583V13.5396H5.20834V11.4563H11.4583V5.2063H13.5417V11.4563H19.7917V13.5396Z" fill="black"/>
</svg>

<svg xmlns="http://www.w3.org/2000/svg" width="25" height="25" fill="none" viewBox="0 0 25 25">
  <path fill="#fff" d="M19.792 13.54h-6.25v6.25h-2.084v-6.25h-6.25v-2.084h6.25v-6.25h2.084v6.25h6.25v2.084Z"/>
</svg>
